X:1
T:Morley, 11.11.11.11
T:Morley, 11.11.11.11
T:Thomas Morley, 1867
T:Public Domain Courtesy of the Cyber Hymnal™
C:Thomas Morley, 1867
Z:Public Domain
Z:Courtesy of the Cyber Hymnal™
%%score ( 1 2 ) ( 3 4 )
L:1/8
Q:1/4=115
M:4/4
K:G
V:1 treble 
V:2 treble 
V:3 bass 
V:4 bass 
V:1
 [B,B]2 [B,D]2 [CB]2 [CA]2 | [B,G]4 [CE]4 | [DG]2 [DF]2 [DG]2 [DB]2 | [Fd]8 | %4
 [Gd]2 [=F^d]2 e3 z =d | [Ec]2 E2 [EB]2 [EA]2 | [DG]4 [DA]4 | [DG]8 | D2 [DE]2 [DF]2 G2 | %9
 [FB]4 [FA]4 | [GB]2 G2 [Ad]2 [GB]2 | [FA]8 | [Gc]3 [Gc] [GB]2 [Ce]2 | [Dd]2 [^DB]2 [EG]2 [^CA]2 | %14
 [DB]4 [CA]4 | [B,G]8 |] %16
V:2
 x8 | x8 | x8 | x8 | x4 E2 E2 x | x2 E2 x4 | x8 | x8 | D2 x2 G2 x2 | x8 | x2 G2 x4 | x8 | x8 | x8 | %14
 x8 | x8 |] %16
V:3
 [G,,D,]2 [G,,D,]2 [G,,E,]2 [G,,F,]2 | [G,,G,]4 [C,G,]4 | [B,,G,]2 [A,,C]2 [G,,B,]2 G,2 | [D,A,]8 | %4
 [B,D]2 [A,C]2 [^G,B,]2 [E,G,]2 x | A,2 [A,,C]2 [B,,D]2 [C,C]2 | [D,B,]4 [D,C]4 | [G,,B,]8 | %8
 [D,F,]2 [D,G,]2 [D,A,]2 [D,B,]2 | [D,D]4 [D,C]4 | [G,B,]2 [B,D]2 [F,D]2 [G,D]2 | [D,D]8 | %12
 [E,G,]3 [E,G,] [D,G,]2 [C,G,]2 | [B,,G,]2 [B,,F,]2 [E,G,]2 [E,G,]2 | [D,G,]4 [D,F,]4 | G,8 |] %16
V:4
 x8 | x8 | x6 G,2 | x8 | x9 | A,2 x6 | x8 | x8 | x8 | x8 | x8 | x8 | x8 | x8 | x8 | G,8 |] %16

